X:4773
T:OhBalmy breeze that fans the Seas. CJF.177
T:Balmy breeze that fans the Seas,Oh. CJF.177
O:england
M:6/8
L:1/8
Q:100
S: C.J.Fox MS, 1829/33, Beverley,E.Yorks.
R:Air
A:East Yorkshire
B:Kidson Coll.Mitchell Lib.M1805
K:Bb
"Andante"F|B2d (def)|ecA FGE|DFB BAB|d2cc3|
ecA fed|dBb gec|B2B {B/}AGA|B3-B2"$"||:
"p"F|"Song"B2dd2f|e2cc2A|B2d e>fg|(d3c)zF|
e2d cde|fdb gec|B2B (c<fA)|B3-B2:||:
(A/B/)|c2c f=ed|dccc2A|B2c (dc)B|(B3A2)(A/B/)|
c2c f=ed|c2bb2g|{f/}=edc cde|hf3z2F|
B2dd2f|e2cc2A|B2d e>fg|(d3c)zF|
e2d cde|(fd).b (ge)c|B2B (c<f)c|B3-B2:||
"Sym:"d|ecA fec|(dB).b (ge).c|B2B {B/}AGA|B3-B2||


